localPackages/DesignSystem/Sources/DesignSystem/Resources/Assets.xcassets/IconSet/ic-chevrons-left.imageset/ic-chevrons-left.svg

<svg width="24" height="24" viewBox="0 0 24 24" fill="none" xmlns="http://www.w3.org/2000/svg">
<g id="ic-chevrons-left">
<path id="Icon" fill-rule="evenodd" clip-rule="evenodd" d="M12.5303 3.21967C12.8232 3.51256 12.8232 3.98744 12.5303 4.28033L4.81066 12L12.5303 19.7197C12.8232 20.0126 12.8232 20.4874 12.5303 20.7803C12.2374 21.0732 11.7626 21.0732 11.4697 20.7803L3.21967 12.5303C2.92678 12.2374 2.92678 11.7626 3.21967 11.4697L11.4697 3.21967C11.7626 2.92678 12.2374 2.92678 12.5303 3.21967ZM20.7803 3.21967C21.0732 3.51256 21.0732 3.98744 20.7803 4.28033L13.0607 12L20.7803 19.7197C21.0732 20.0126 21.0732 20.4874 20.7803 20.7803C20.4874 21.0732 20.0126 21.0732 19.7197 20.7803L11.4697 12.5303C11.1768 12.2374 11.1768 11.7626 11.4697 11.4697L19.7197 3.21967C20.0126 2.92678 20.4874 2.92678 20.7803 3.21967Z" fill="#0F0F0F"/>
</g>
</svg>

<svg xmlns="http://www.w3.org/2000/svg" width="24" height="24" viewBox="0 0 24 24">
  <g class="ic-chevrons-left">
    <path fill-rule="evenodd" d="M12.53 3.22a.75.75 0 0 1 0 1.06L4.81 12l7.72 7.72a.75.75 0 1 1-1.06 1.06l-8.25-8.25a.75.75 0 0 1 0-1.06l8.25-8.25a.75.75 0 0 1 1.06 0Zm8.25 0a.75.75 0 0 1 0 1.06L13.06 12l7.72 7.72a.75.75 0 1 1-1.06 1.06l-8.25-8.25a.75.75 0 0 1 0-1.06l8.25-8.25a.75.75 0 0 1 1.06 0Z" class="Icon"/>
  </g>
</svg>
